dist/img/svg/footer_telegram.svg

<svg width="20" height="20" viewBox="0 0 20 20" xmlns="http://www.w3.org/2000/svg"><path d="M10 0C4.48 0 0 4.48 0 10s4.48 10 10 10 10-4.48 10-10S15.52 0 10 0zm4.64 6.8c-.15 1.58-.8 5.42-1.13 7.19-.14.75-.42 1-.68 1.03-.58.05-1.02-.38-1.58-.75-.88-.58-1.38-.94-2.23-1.5-.99-.65-.35-1.01.22-1.59.15-.15 2.71-2.48 2.76-2.69a.2.2 0 00-.05-.18c-.06-.05-.14-.03-.21-.02-.09.02-1.49.95-4.22 2.79-.4.27-.76.41-1.08.4-.36-.01-1.04-.2-1.55-.37-.63-.2-1.12-.31-1.08-.66.02-.18.27-.36.74-.55 2.92-1.27 4.86-2.11 5.83-2.51 2.78-1.16 3.35-1.36 3.73-1.36.08 0 .27.02.39.12.1.08.13.19.14.27-.01.06.01.24 0 .38z"/></svg>

<svg width="20" height="20" viewBox="0 0 20 20" xmlns="http://www.w3.org/2000/svg">
<path d="M10 0C4.48 0 0 4.48 0 10C0 15.52 4.48 20 10 20C15.52 20 20 15.52 20 10C20 4.48 15.52 0 10 0ZM14.64 6.8C14.49 8.38 13.84 12.22 13.51 13.99C13.37 14.74 13.09 14.99 12.83 15.02C12.25 15.07 11.81 14.64 11.25 14.27C10.37 13.69 9.87 13.33 9.02 12.77C8.03 12.12 8.67 11.76 9.24 11.18C9.39 11.03 11.95 8.7 12 8.49C12.0069 8.45819 12.006 8.42517 11.9973 8.3938C11.9886 8.36244 11.9724 8.33367 11.95 8.31C11.89 8.26 11.81 8.28 11.74 8.29C11.65 8.31 10.25 9.24 7.52 11.08C7.12 11.35 6.76 11.49 6.44 11.48C6.08 11.47 5.4 11.28 4.89 11.11C4.26 10.91 3.77 10.8 3.81 10.45C3.83 10.27 4.08 10.09 4.55 9.9C7.47 8.63 9.41 7.79 10.38 7.39C13.16 6.23 13.73 6.03 14.11 6.03C14.19 6.03 14.38 6.05 14.5 6.15C14.6 6.23 14.63 6.34 14.64 6.42C14.63 6.48 14.65 6.66 14.64 6.8Z"/>
</svg>
